X:871
T:87. I'M UP TO MY OXTERS (32 bar reel)
C:Ian Hall
O:Cumbria
M:4/4
L:1/8
Q:1/4=160
R:Reel
K:G
P:A
|:"G"dedc "Em"BcBA|"G"G2GF D2D2|"C"EDEF GFGA|"D"B2A2 A4|
  "G"dedc "Em"BcBA|"G"G2GF D2D2|"Em"B,CDE "Am"DEFG|"D" A2G2 "G"G4:|
P:B
|:"Am"A2AA e2e2|"G"gfed B4|"C"cBcd edcB|"D"B2A2 A4|
  "Am"AGAB c2e2|"G"dcBA G4|"C"EFGA "D7"AGAc|"G"B2G2 G4:|
